docs/icons/setting.svg

<svg xmlns="http://www.w3.org/2000/svg" xmlns:xlink="http://www.w3.org/1999/xlink" width="30" height="30" viewBox="0 0 30 30" fill="none"><defs><rect id="path_0" x="0" y="0" width="16" height="16" /></defs><g opacity="1" transform="translate(0 0)  rotate(0 15 15)"><path id="矩形 1" fill-rule="evenodd"  transform="translate(0 0)  rotate(0 15 15)" opacity="1" d="M0,30L30,30L30,0L0,0L0,30Z " /><g opacity="1" transform="translate(7 7)  rotate(0 8 8)"><mask id="bg-mask" fill="white"><use xlink:href="#path_0"></use></mask><g mask="url(#bg-mask)" ><path id="路径 1" fill-rule="evenodd" style="fill:#787878" transform="translate(7.673208735070602e-8 0.00047468154134744367)  rotate(0 8.007002613107028 7.999762607500356)" opacity="1" d="M4.53,2.34C3.98,2.63 3.35,2.72 2.74,2.59C2.2,2.47 1.64,2.66 1.28,3.08C0.81,3.65 0.41,4.29 0.11,4.98C-0.11,5.48 0,6.08 0.4,6.46C0.81,6.87 1.05,7.42 1.05,8C1.05,8.58 0.81,9.13 0.4,9.54C0,9.92 -0.11,10.52 0.11,11.02C0.41,11.71 0.81,12.35 1.29,12.92C1.65,13.34 2.21,13.52 2.75,13.4C3.35,13.28 3.99,13.37 4.54,13.66C5.06,13.94 5.46,14.4 5.65,14.96C5.82,15.49 6.28,15.86 6.83,15.92C7.61,16.02 8.39,16.02 9.16,15.92C9.71,15.86 10.17,15.49 10.35,14.96C10.54,14.4 10.95,13.93 11.48,13.66C12.03,13.37 12.66,13.28 13.27,13.4C13.8,13.52 14.37,13.34 14.72,12.92C15.2,12.35 15.6,11.71 15.9,11.02C16.13,10.52 16.01,9.92 15.61,9.54C15.2,9.13 14.97,8.58 14.97,8C14.97,7.42 15.2,6.87 15.61,6.46C16.01,6.08 16.13,5.48 15.9,4.98C15.6,4.29 15.2,3.65 14.72,3.08C14.36,2.66 13.8,2.47 13.26,2.59C12.65,2.72 12.02,2.63 11.48,2.34C10.95,2.07 10.54,1.6 10.35,1.04C10.17,0.51 9.71,0.14 9.17,0.07C8.39,-0.02 7.61,-0.02 6.84,0.07C6.29,0.14 5.82,0.51 5.65,1.04C5.45,1.6 5.05,2.06 4.53,2.34Z " /><path id="分组 1" fill-rule="evenodd" style="fill:#FFFFFF" transform="translate(4.7760550315490935 4.777598915914087)  rotate(0 3.223374362201315 3.2233743622030717)" opacity="1" d="M0.25 1.99C-0.25 3.19 0.02 4.58 0.94 5.5C1.87 6.42 3.25 6.7 4.46 6.2C5.66 5.7 6.45 4.53 6.45 3.22C6.44 1.44 5 0 3.23 0C1.92 0 0.75 0.78 0.25 1.99Z M3.23028 1.29836C2.45028 1.29836 1.74028 1.76836 1.45028 2.48836C1.15028 3.20836 1.31028 4.03836 1.86028 4.58836C2.42028 5.13836 3.24028 5.29836 3.96028 4.99836C4.68028 4.69836 5.15028 3.99836 5.15028 3.21836C5.15028 2.15836 4.29028 1.29836 3.23028 1.29836Z " /></g></g></g></svg>

<svg xmlns="http://www.w3.org/2000/svg" xmlns:xlink="http://www.w3.org/1999/xlink" width="30" height="30" fill="none" xmlns:v="https://vecta.io/nano"><defs><path id="A" d="M0 0h16v16H0z"/></defs><g transform="translate(7 7)"><mask id="B" fill="#fff"><use xlink:href="#A"/></mask><g mask="url(#B)" fill-rule="evenodd"><path transform="matrix(1 0 0 1 0 .000475)" d="M4.53 2.34c-.55.29-1.18.38-1.79.25-.54-.12-1.1.07-1.46.49a8.03 8.03 0 0 0-1.17 1.9A1.32 1.32 0 0 0 .4 6.46c.41.41.65.96.65 1.54S.81 9.13.4 9.54a1.32 1.32 0 0 0-.29 1.48c.3.69.7 1.33 1.18 1.9a1.49 1.49 0 0 0 1.46.48 2.72 2.72 0 0 1 1.79.26c.52.28.92.74 1.11 1.3a1.39 1.39 0 0 0 1.18.96c.78.1 1.56.1 2.33 0 .55-.06 1.01-.43 1.19-.96.19-.56.6-1.03 1.13-1.3a2.71 2.71 0 0 1 1.79-.26c.53.12 1.1-.06 1.45-.48.48-.57.88-1.21 1.18-1.9.23-.5.11-1.1-.29-1.48a2.17 2.17 0 0 1 0-3.08c.4-.38.52-.98.29-1.48-.3-.69-.7-1.33-1.18-1.9-.36-.42-.92-.61-1.46-.49a2.61 2.61 0 0 1-1.78-.25c-.53-.27-.94-.74-1.13-1.3A1.44 1.44 0 0 0 9.17.07c-.78-.09-1.56-.09-2.33 0-.55.07-1.02.44-1.19.97a2.39 2.39 0 0 1-1.12 1.3z" fill="#787878"/><path transform="matrix(1 0 0 1 4.776055 4.777599)" d="M.25 1.99A3.22 3.22 0 0 0 .94 5.5c.93.92 2.31 1.2 3.52.7a3.23 3.23 0 0 0 1.99-2.98C6.44 1.44 5 0 3.23 0 1.92 0 .75.78.25 1.99zm2.98-.692c-.78 0-1.49.47-1.78 1.19-.3.72-.14 1.55.41 2.1.56.55 1.38.71 2.1.41a1.93 1.93 0 0 0 1.19-1.78 1.92 1.92 0 0 0-1.92-1.92z" fill="#fff"/></g></g></svg>
